X: 1498
T: Andy De Jarlis'
R: jig
M: 6/8
K: Dmajor
M:12/8
|:A|DFA DFA DFA B2 A|DFA DFA A,CE GFE|
DFA DFA DFA B2 g|f2 e ABc d3 d2:|
|:g|faf def a2 g B3|e2 f e2 d cec A2 g|
faf def a2 g B2 g|f2 e ABc d3 d2:|

